icons/phone-17.svg

<svg width="16" height="17" viewBox="0 0 16 17" fill="none" xmlns="http://www.w3.org/2000/svg">
<path d="M2.83028 2.70286L5.03859 2.19415C5.54495 2.07694 6.06069 2.3395 6.26464 2.81773L7.28441 5.19717C7.47195 5.63321 7.34536 6.14895 6.9773 6.44902L6.03959 7.21559C6.71006 8.444 7.72279 9.45673 8.95119 10.1248L9.71777 9.18713C10.0178 8.81908 10.5336 8.69249 10.9696 8.88003L13.3514 9.89979C13.8296 10.1037 14.0898 10.6195 13.975 11.1259L13.4663 13.3342C13.3537 13.8241 12.9224 14.1664 12.4207 14.1664C6.67958 14.1687 1.99806 9.52002 1.99806 3.74841C1.99806 3.24673 2.34032 2.81538 2.83028 2.70286ZM11.9762 13.0332C12.2097 13.0441 12.4135 12.8817 12.4659 12.6539L12.7723 11.3244C12.8266 11.0887 12.7044 10.8479 12.4821 10.7526L10.9099 10.0785C10.7051 9.99073 10.4669 10.049 10.3258 10.2215L9.65312 11.044C9.421 11.3278 9.02387 11.4197 8.69878 11.2502C6.91829 10.3217 5.84503 9.25124 4.91603 7.46773C4.74677 7.14277 4.83879 6.74595 5.12241 6.51398L5.94526 5.84095C6.11774 5.69988 6.17605 5.4617 6.08825 5.25691L5.41422 3.68469C5.3189 3.46237 5.07811 3.34016 4.8424 3.39448L3.51287 3.70084C3.28509 3.75332 3.12264 3.95711 3.1336 4.1906C3.35812 8.97322 7.19356 12.8087 11.9762 13.0332Z" fill="#272431"/>
</svg>

<svg xmlns="http://www.w3.org/2000/svg" width="16" height="17" viewBox="0 0 16 17"><path d="M2.83 2.703l2.209-.509a1.07 1.07 0 011.226.624l1.02 2.38c.187.435.06.95-.308 1.251l-.937.767a7.29 7.29 0 002.911 2.909l.767-.938c.3-.368.816-.495 1.252-.307l2.38 1.02c.479.204.739.72.624 1.226l-.509 2.208c-.112.49-.544.832-1.045.832C6.68 14.17 1.998 9.52 1.998 3.748c0-.501.342-.933.832-1.045zm9.146 10.33a.483.483 0 00.49-.38l.306-1.329a.5.5 0 00-.29-.571l-1.572-.675a.5.5 0 00-.584.144l-.673.822a.773.773 0 01-.954.206c-1.78-.928-2.854-1.999-3.783-3.782a.773.773 0 01.206-.954l.823-.673a.5.5 0 00.143-.584l-.674-1.572a.5.5 0 00-.572-.29l-1.33.306a.483.483 0 00-.378.49 9.295 9.295 0 008.842 8.842z"/></svg>
